packages/core/src/svgs/networks/mono/thundercore.svg

<svg width="24" height="24" viewBox="0 0 24 24" fill="none" xmlns="http://www.w3.org/2000/svg">
<path d="M6.17883 11.3924C6.13663 11.4595 6.11318 11.5367 6.1109 11.6159C6.10862 11.6952 6.12761 11.7735 6.16589 11.843C6.20416 11.9124 6.26033 11.9703 6.32856 12.0106C6.39678 12.051 6.47457 12.0723 6.55383 12.0724H11.62C11.658 12.0722 11.6954 12.0823 11.7282 12.1014C11.761 12.1206 11.7881 12.1482 11.8066 12.1814C11.8251 12.2146 11.8344 12.2521 11.8334 12.2901C11.8325 12.3281 11.8214 12.3652 11.8013 12.3974L6.82883 20.3586C6.81646 20.3791 6.80007 20.3969 6.78065 20.4109C6.76123 20.4249 6.73918 20.4348 6.71583 20.44C6.69247 20.4453 6.66829 20.4458 6.64475 20.4414C6.62121 20.4371 6.59878 20.4281 6.57883 20.4148C4.78734 19.2575 3.41227 17.5583 2.65403 15.5649C1.89579 13.5714 1.794 11.3879 2.3635 9.33252C2.93301 7.27717 4.14404 5.45741 5.8201 4.13846C7.49616 2.8195 9.54964 2.07029 11.6813 2.00002C11.7129 1.99957 11.744 2.00762 11.7714 2.02332C11.7988 2.03902 11.8215 2.0618 11.8371 2.08927C11.8526 2.11673 11.8606 2.14789 11.86 2.17946C11.8594 2.21104 11.8504 2.24188 11.8338 2.26876L6.17883 11.3924ZM17.6037 3.71125C17.584 3.69756 17.5617 3.68807 17.5382 3.68336C17.5147 3.67865 17.4905 3.67882 17.467 3.68386C17.4436 3.6889 17.4215 3.6987 17.402 3.71266C17.3825 3.72662 17.366 3.74443 17.3537 3.765L12.4575 11.6087C12.4375 11.6408 12.4264 11.6777 12.4254 11.7156C12.4244 11.7535 12.4335 11.791 12.4519 11.8241C12.4703 11.8573 12.4972 11.8849 12.5298 11.9042C12.5624 11.9234 12.5996 11.9336 12.6375 11.9337H17.7037C17.783 11.9338 17.8608 11.9551 17.929 11.9955C17.9972 12.0358 18.0534 12.0937 18.0917 12.1631C18.1299 12.2325 18.1489 12.3109 18.1466 12.3902C18.1444 12.4694 18.1209 12.5466 18.0787 12.6137L12.3513 21.7861C12.3376 21.8077 12.3301 21.8326 12.3297 21.8582C12.3292 21.8837 12.3358 21.9089 12.3487 21.931C12.3616 21.9531 12.3803 21.9711 12.4028 21.9833C12.4253 21.9954 12.4507 22.0011 12.4763 21.9998C14.5749 21.8981 16.5883 21.1386 18.2312 19.8289C19.8741 18.5192 21.0633 16.7258 21.6303 14.7027C22.1972 12.6795 22.1131 10.5293 21.39 8.55656C20.6669 6.58385 19.3414 4.88869 17.6012 3.71125H17.6037Z" fill="white"/>
</svg>

<svg xmlns="http://www.w3.org/2000/svg" width="24" height="24" fill="none" viewBox="0 0 24 24">
    <path fill="#fff" d="M6.179 11.392a.444.444 0 0 0 .375.68h5.066a.213.213 0 0 1 .181.325L6.83 20.36a.18.18 0 0 1-.25.056A10.011 10.011 0 0 1 11.68 2a.176.176 0 0 1 .153.269zm11.425-7.68a.175.175 0 0 0-.25.053l-4.896 7.844a.213.213 0 0 0 .18.325h5.066a.443.443 0 0 1 .375.68l-5.728 9.172a.14.14 0 0 0 .052.197.14.14 0 0 0 .073.017 10.01 10.01 0 0 0 5.125-18.29z"/>
</svg>
